src/icons/contributing.svg

<svg viewBox="0 0 24 24" xmlns="http://www.w3.org/2000/svg">
  <path
    d="M17 9H7V7H17M17 13H7V11H17M14 17H7V15H14M12 3C12.2652 3 12.5196 3.10536 12.7071 3.29289C12.8946 3.48043 13 3.73478 13 4C13 4.26522 12.8946 4.51957 12.7071 4.70711C12.5196 4.89464 12.2652 5 12 5C11.7348 5 11.4804 4.89464 11.2929 4.70711C11.1054 4.51957 11 4.26522 11 4C11 3.73478 11.1054 3.48043 11.2929 3.29289C11.4804 3.10536 11.7348 3 12 3ZM19 3H14.82C14.4 1.84 13.3 1 12 1C10.7 1 9.6 1.84 9.18 3H5C4.46957 3 3.96086 3.21071 3.58579 3.58579C3.21071 3.96086 3 4.46957 3 5V19C3 19.5304 3.21071 20.0391 3.58579 20.4142C3.96086 20.7893 4.46957 21 5 21H19C19.5304 21 20.0391 20.7893 20.4142 20.4142C20.7893 20.0391 21 19.5304 21 19V5C21 4.46957 20.7893 3.96086 20.4142 3.58579C20.0391 3.21071 19.5304 3 19 3Z"
    fill="#FFCA28"
  />
</svg>

<svg xmlns="http://www.w3.org/2000/svg" viewBox="0 0 24 24">
  <path
    d="M17 9H7V7h10m0 6H7v-2h10m-3 6H7v-2h7M12 3a1 1 0 0 1 1 1 1 1 0 0 1-1 1 1 1 0 0 1-1-1 1 1 0 0 1 1-1m7 0h-4.18C14.4 1.84 13.3 1 12 1c-1.3 0-2.4.84-2.82 2H5a2 2 0 0 0-2 2v14a2 2 0 0 0 2 2h14a2 2 0 0 0 2-2V5a2 2 0 0 0-2-2z"
    fill="#ffca28"
  />
</svg>
